X:7
T:The Gravel Walk
R:reel
O:Irish reel
D:Natalie MacMaster, LIVE, 2002
Z:Paul Stewart Cranford (P.S.C.), <http://www.cranfordpub.com>
L:1/8
Q:333
M:C|
K:Ador
A2 eA (3(cBA) eA|(3(cBA) eA BAGB|A2 eA cdef|gedc BAGB:|
A/A/A aA gAfA|A/A/A eA BAGB|A/A/A aA gefa|gedc BAGB|
A/A/A aA gAfA|A/A/A eA BAGB|ABcd efga|gedc BAGB||
ceAB A/A/A AB|cA A/A/A BAGB|cAAG A3 f|gfge dBGB|
cAAG A/A/A AB|cA A/A/A BAGB|cAAG A3 f|gfge dBGB||
c/c/c gc acgc|c/c/c gc BAGB|c/c/c gc acga|gedc BAGB|
c/c/c gc acgc|c/c/c gc BAGB|ABcd efga|gedc BAGB|]
